X: 14781
T: Gan Ainm
R: polka
M: 2/4
K: Dmajor
|:A(3A/B/A/ Fd|A(3A/B/A/ Fb|ag g/e/c/A/|B^A B/=A/F/D/|
A(3A/B/A/ Fd|A(3A/B/A/ Fb|ag g/e/c/A/|^G/A/B/c/ d2:|
|:ee c'>e|d'd' d'/b/^g/e/|f>f f/e/c/A/|ee A/B/c/d/|
ee c'>e|d'd' d'/b/^g/e/|f>f f/e/c/A/|f^g a2:|

